X:1
T:Take the Life-Boat
T:Take the Life-Boat
T:William James Kirkpatrick
T:Harriet Clarissa Bradford Spoor, 1902
T:Public Domain Courtesy of the Cyber Hymnal™
T:Public Domain Courtesy of the Cyber Hymnal™
C:William James Kirkpatrick
Z:Public Domain
Z:Courtesy of the Cyber Hymnal™
%%score ( 1 2 ) ( 3 4 )
L:1/8
Q:1/4=95
M:4/4
K:G
V:1 treble 
V:2 treble 
V:3 bass 
V:4 bass 
V:1
 [DB]3 [^C^A] [DB][B,D][=CE][Ec] | [DB]4 [B,G]4 | [CA]3 [B,^G] [CA][CD] [DB]>[CA] | [B,G]6 z2 | %4
w: 1.~Are you wrecked up- on life’s|o- cean?|Loud the waves a- bout you|roar,|
w: 2.~Lin- ger not for earth- ly|trea- sures,|Yon- der lies the land of|gold;|
w: 3.~Pre- cious souls, like you, have|lin- gered,|“Time e- nough,” they gai- ly|said;|
w: 4.~Take the life- boat, you are|sink- ing,|Do not wait a mo- ment|more;|
 [DB]3 [^C^A] [DB][B,D][=CE][Ec] | [Ec]4 [DB]4 | [FA]3 [FA] [G^c][Gc][GB][GA] | [Fd]6 || %8
w: Still there’s hope, you need not|per- ish,|You may reach the heav’n- ly|shore.|
w: Friends and loved ones there are|wait- ing,|There are joys for you un-|told.|
w: Ere the mor- row they had|per- ished,|They are num- bered with the|dead.|
w: This may be your fi- nal|of- fer,|Hast- en now for yon- der|shore.|
"^Refrain" z2 | [GB]>[GB] [GB]2 [GB]2 z2 | [Fc]>[Fc] [Fc]2 [Fc]2 (3(cd)[Fe] x3/4 | %11
w: |||
w: |Take the life- boat,|take the life- boat, See, * the|
w: |||
w: |||
 [Gd]>[Gd] [GB]>[GB] | [Gd]>[GB] [DA]>[DG] | A4 !fermata![Ad]2 z2 | [GB]>[GB] [GB]2 [GB]2 z2 | %15
w: ||||
w: Sav- ior hold- ing|out a help- ing|hand. Wait|* no long- er,|
w: ||||
w: ||||
 [Ec]>[Ec] [Ec]2 [Ec]2 (3(GF)[=A,E] | [B,D]>[B,D] [DG]>[DG] [GB]>[FA] !fermata![Fc]>[DF] | %17
w: ||
w: take the life- boat, Start * to-|day for Heav- en’s bright and hap- py|
w: ||
w: ||
 [DG]6 z2 |] %18
w: |
w: land.|
w: |
w: |
V:2
 x8 | x8 | x8 | x8 | x8 | x8 | x8 | x6 || x2 | x8 | x6 F2 x3/4 | x4 | x4 | F2 G2 x4 | x8 | %15
 x6 ^A,2 | x8 | x8 |] %18
V:3
 (G,,G,D,)G, G,,G,C,G, | (G,,G,D,G,) (G,,G,D,G,) | (D,A,F,)A, D,A,F,A, | (G,,G,D,G, G,,2) z2 | %4
w: ~ * * ~ ~ ~ ~ ~|~ * * * ~ * * *|~ * * ~ ~ ~ ~ ~|~ * * * *|
 (G,,G,D,)G, G,,G,C,G, | (G,,G,E,G,) (G,,G,D,G,) | (D,A,F,)A, A,,A,E,A, | [D,A,]6 || (3(D,E,)F, | %9
w: ~ * * ~ ~ ~ ~ ~|~ * * * ~ * * *|~ * * ~ ~ ~ ~ ~|~|Take * the|
 (D>D) (D2 D2) (3:2:1A, x4/3 | (D>D) (A,2 A,2) D2 (3:2:1[CD] x/12 | [B,D]>[B,D] [G,D]>[G,D] | %12
w: life- * boat, * take|the * life- * boat, ~|~ ~ ~ ~|
 [B,D]>[G,D] [F,C]>[G,B,] | ([D,D]2 [E,^C]2 !fermata![F,=C]2) (3(D,E,)F, | %14
w: ~ ~ ~ ~|~ * * ~ * Wait|
 (D>D) (D2 D2) (3(B,,C,)D, | (G,>G,) (G,2 G,2) (3:2:2[^C,G,]2 [C,G,] | %16
w: no * long- * er, * take|the * life- * boat, *|
 [D,G,]>[D,G,] [D,B,]>[D,B,] [D,D]>[D,C] !fermata![D,A,]>[D,C] | [G,,B,]6 z2 |] %18
w: ||
V:4
 x8 | x8 | x8 | x8 | x8 | x8 | x8 | x6 || x2 | G,2 G,4 (3:2:2(CB,) x2/3 | %10
 A,2 D,4 (3:2:2(A,B,) x17/12 | x4 | x4 | x8 | G,2 G,4 x2 | E,2 ^C,4 x2 | x8 | x8 |] %18

